X:1
T:Hazel Dean [1]
M:2/4
L:1/8
S:Frank King (southwest Pa., 1960)
B:Bayard – Dance to the Fiddle, March to the Fife (1981, No. 319)
K:G
d/c/|BG Gd|B/c/d/B/ gd|BG GA/B/|cA Ad/c/|
BG Gd|B/c/d/B/ gd|Bd Ad/c/|BG G||
d|g>d gd|gd B/c/d|g>f gf/g/|aA Ad|
g>d g>d|gd B/c/d/B/|ce Ad/c/|BG G||

